!!! OTL: Berkowitz410
!!! Chapter: 1
!!! Section: III
!!! Page: 102
!!! Mode: 
!!! Encoder: DJB
**kern
*staff1
*I"Piano
=1-
*clefF4
*k[b-]
*F:
*M2/4
16F\LL
16E\
16D\
16C\JJ
16BBn/LL
16C/
16D/
16E/JJ
=2
16F\LL
16E\
16F\
16E\JJ
8F\L
[8B-\J
=3
16B-\LL]
16A\
16G\
16F\JJ
16E\LL
16F\
16G\
16A\JJ
=4
16B-\LL
16A\
16B-\
16A\JJ
8B-\L
8Bn\J
=5
16c\LL
16Bn\
16c\
16B\JJ
8c\L
8BBn\J
=6
!!linebreak:original
16C/LL
16BBn/
16C/
16BB/JJ
8C/L
[8C#/J
=7
8C#/]
4D\
8E\
=8
16r
16F\LL
16E\
16D\JJ
16C\LL
16C#\
16D\
16E\JJ
=9
16F\LL
16E\
16F\
16E\JJ
4F\
==
*-
